X:1
T:Wiltshire, CM
T:Wiltshire, CM
T:George Thomas Smart, 1795
T:Public Domain Courtesy of the Cyber Hymnal™
C:George Thomas Smart, 1795
Z:Public Domain
Z:Courtesy of the Cyber Hymnal™
%%score ( 1 2 ) ( 3 4 )
L:1/8
M:3/4
K:Ab
V:1 treble 
V:2 treble 
V:3 bass 
V:4 bass 
V:1
 [CE]2 | (C2 E2) [EA]2 | ([EA]2 [DG]2) [CA]2 | ([Fd]2 [Ec]2) [EB]2 | ([DB]2 [Cc]2) [CE]2 | %5
 G4 [DE]2 | (E2 c2) A2 | (A2 !fermata!G2) [DB]2 | A4 [DG]2 | A4 [EB]2 | (c2 d2) [Ec]2 | %11
 ([Ac]2 [GB]2) (cA) | F4 (BA) | ([EG]3 F) G2 | [CA]4 |] %15
V:2
 x2 | C4 x2 | x6 | x6 | x6 | (B,2 C2) x2 | C4 (EF) | E4 x2 | (C2 E2) x2 | (C2 E2) x2 | E4 x2 | %11
 x4 E2 | (E2 D2) F2 | x3 F (ED) | x4 |] %15
V:3
 [A,,A,]2 | A,4 [A,,C]2 | (C2 B,2) [F,A,]2 | A,4 [E,G,]2 | (G,2 A,2) [A,,E,]2 | E,4 [B,,E,]2 | %6
 (A,2 E,2) A,2 | (C2 !fermata!B,2) [E,G,]2 | A,4 [E,B,]2 | A,4 [E,G,]2 | A,2 [G,B,]2 (CD) | %11
 [E,E]4 [C,A,]2 | (A,2 B,C) [B,,D]2 | (B,3 A,) [E,B,]2 | [A,,A,]4 |] %15
V:4
 x2 | (A,,2 C,2) x2 | E,4 x2 | (D,2 E,2) x2 | A,,4 x2 | G,,2 A,,2 x2 | A,,4 (C,D,) | E,4 x2 | %8
 (A,2 C,2) x2 | (A,,2 C,2) x2 | (A,2 A,2) x2 | x6 | D,4 x2 | E,4 x2 | x4 |] %15

